X:1
T:His Love Reaches Down to You
T:His Love Reaches Down to You
T:J. K. Everett
T:Helen Fairfield, 1917
T:Public Domain Courtesy of the Cyber Hymnal™
T:Public Domain Courtesy of the Cyber Hymnal™
C:J. K. Everett
Z:Public Domain
Z:Courtesy of the Cyber Hymnal™
%%score ( 1 2 ) ( 3 4 )
L:1/8
Q:1/4=140
M:6/4
K:Db
V:1 treble 
V:2 treble 
V:3 bass 
V:4 bass 
V:1
 [FA]2 [=E=G]2 [FA]2 [Fd]2 [Ac]2 [_GB]2 | [FA]4 [EG]2 [DF]6 | [EG]2 [EG]2 [EG]2 [EG]2 [DF]2 [EG]2 | %3
w: 1.~Drift- ed a- way from your|mo- ther’s prayers,|Drift- ed a- way, think- ing|
w: 2.~Hast- en and turn from the|world a- way,|Turn from the things that hold|
w: 3.~Love, so un- mea- sured, so|full and free,|Flows like a ri- ver for|
w: 4.~Sha- dows are ga- ther- ing,|night is near,|Why do you lin- ger in|
 [GB]4 [=E=G]2 [FA]6 | [FA]2 [=E=G]2 [FA]2 [Fd]2 [Ac]2 [_GB]2 | [FA]4 [Fd]2 [Gc]4 [Ec]2 | %6
w: no one cares;|Je- sus is call- ing, while|mer- cy spares, His|
w: you a- stray;|Come back to God, while He|calls to- day, His|
w: you and me;|On- ly be- lieve it and|you shall see, His|
w: doubt and fear?|List to the mes- sage so|full of cheer, His|
 [Dd]2 [DA]2 [EG]2 [DF]4 [CE]2 | D6- D4 ||"^Refrain" [FA]2 | A8 [FB]2 [DF]2 | %10
w: love reach- es down to|you. *|||
w: love reach- es down to|you. *|His|love reach- es|
w: love reach- es down to|you. *|||
w: love reach- es down to|you. *|||
 [FA]4 [GA]2 [FA]4 [Fd]2 | c8 [Ge]2 [Ge]2 | [Fd]4 [Gd]2 [Fd]4 [FA]2 | %13
w: |||
w: down to you, His|love reach- es|down to you; O|
w: |||
w: |||
 [Fd]2 [Fd]2 [Fd]2 [Fd]4 [Fd]2 |"^riten." [Af]2 [Ae]2 [Ad]2 !fermata![GB]4 [GB]2 | %15
w: ||
w: be not dis- mayed, Tho’|far you have strayed, His|
w: ||
w: ||
 [FA]2 [Ac]2 [GB]2 [FA]4 [Ge]2 | [Fd]6- [Fd]4 z2 |] %17
w: ||
w: love reach- es down to|you. *|
w: ||
w: ||
V:2
 x12 | x12 | x12 | x12 | x12 | x12 | x12 | D6- D4 || x2 | (F2 D2 E2 F2) x4 | x12 | %11
 (E2 E2 E2 E2) x4 | x12 | x12 | x12 | x12 | x12 |] %17
V:3
 [D,D]2 [D,D]2 [D,D]2 [D,A,]2 [D,A,]2 (B,C) | [D,D]4 [D,A,]2 [D,A,]6 | %2
w: ~ ~ ~ ~ ~ ~ *|~ ~ ~|
 [A,,A,]2 [A,,A,]2 [A,,A,]2 [A,,A,]2 [A,,A,]2 [A,,C]2 | [D,D]4 [D,D]2 [D,D]6 | %4
w: ~ ~ ~ ~ ~ ~|~ ~ ~|
 [D,D]2 [D,D]2 [D,D]2 [D,A,]2 [D,A,]2 (B,C) | [D,D]4 [D,A,]2 [E,A,]4 [G,A,]2 | %6
w: ~ ~ ~ ~ ~ ~ *|~ ~ ~ ~|
 [F,A,]2 [F,A,]2 [G,B,]2 A,4 [A,,G,]2 | [D,F,]6- [D,F,]4 || [D,D]2 | %9
w: ~ ~ ~ ~ ~|~ *|His|
 [D,D]2 [D,F,]2 [D,A,]2 [D,D]2 [D,A,]2 [D,A,]2 | [D,D]4 [A,,C]2 [D,D]4 [D,A,]2 | %11
w: love, yes, His love ~ ~|~ ~ ~ His|
 [E,A,]2 [E,A,]2 [E,A,]2 [E,A,]2 [A,C]2 [A,C]2 | (D2 C2) [D,B,]2 [D,A,]4 [D,D]2 | %13
w: love, yes, His love * *||
 [D,A,]2 [F,A,]2 A,2 [D,A,]4 [D,A,]2 | [D,D]2 [E,C]2 [F,D]2 !fermata![G,D]4 [G,D]2 | %15
w: ||
 [A,D]2 [A,D]2 [A,D]2 [A,D]4 [A,C]2 | [D,A,]6- [D,A,]4 z2 |] %17
w: ||
V:4
 x10 D,2 | x12 | x12 | x12 | x10 D,2 | x12 | x6 A,4 x2 | x10 || x2 | x12 | x12 | x12 | D,4 x8 | %13
 x4 A,2 x6 | x12 | x12 | x12 |] %17

